X:1
T:Schnwetterpolka
C:Jens Wollschlger
O:Germany
M:2/4
L:1/8
K:G
|:D2G2|B2d2|dcB2|A2D2|D2F2|A2c2|cBc2|d2B2|D2G2|B2d2|dcB2|A2d2|B2G2|A2F2|G4|G4:|
|:B4|B2d2|dcB2|A4|A4|A2c2|cBc2|d2B2|B4|B2d2|dcB2|A2d2|B2G2|A2F2|G4|G4:|
